X:1
T:My Bonnie
C:Traditional
Z:All Rights Reserved
L:1/8
M:6/8
K:G
V:1 treble nm=" " snm=" "
V:1
"^Verse" D |"G" BAG"C" AGE |"G" D B,2 z2 D |"G" BAG"A" GFG |"D7" A3 z2 D |"G" BAG"C" AGE | %6
w: My|bon- nie is o- ver the|o- cean, my|bon- nie is o- ver the|sea, my|bon- nie is o- ver the|
"G" D B,2 z2 D |"C" EAG"D" FEF |"G" G3- G2 z ||"^Chorus""G" D3 G3 |"C" E3 A2 G |"D" FFF FEF | %12
w: o- cean, o|bring back my bon- nie to|me. _|Bring back,|bring back, o|bring back my bon- nie to|
"G" G2 A B3 |"G" D3 G3 |"C" E3 A2 G |"D" FFF FEF |"G" G2 B G2 |] %17
w: me to me.|Bring back,|bring back, o|bring back my bon- nie to|me to me.|

